toolkits/global/packages/global-context/img/icons/video.svg

<svg height="24" viewBox="0 0 24 24" width="24" xmlns="http://www.w3.org/2000/svg"><path d="m19.0049107 5c1.1018574 0 1.9950893.89706013 1.9950893 2.00585866v9.98828264c0 1.1078052-.8926228 2.0058587-1.9950893 2.0058587h-14.00982141c-1.10185739 0-1.99508929-.8970601-1.99508929-2.0058587v-9.98828264c0-1.10780515.8926228-2.00585866 1.99508929-2.00585866zm0 1h-14.00982141c-.54871518 0-.99508929.44887827-.99508929 1.00585866v9.98828264c0 .5572961.44630695 1.0058587.99508929 1.0058587h14.00982141c.5487152 0 .9950893-.4488783.9950893-1.0058587v-9.98828264c0-.55729607-.446307-1.00585866-.9950893-1.00585866zm-8.3091292 2.24944486 4.6046046 2.73982244c.9365543.5572666.9290753 1.4652243 0 2.0180408l-4.6046046 2.7398224c-.93655427.5572666-1.6957815.1645632-1.6957815-.8937585v-5.71016863c0-1.05087579.76670616-1.446575 1.6957815-.89375851zm-.6749277.96085624v5.5750128c0 .2995102-.10753746.2442517.1657893.0847713l4.5845228-2.6749726c.3050619-.1779972.3051624-.2165545 0-.3946103l-4.5845228-2.67497259c-.2663075-.15538481-.1657893-.20699944-.1657893.08477139z" fill="#666" fill-rule="evenodd"/></svg>

<?xml version="1.0" encoding="UTF-8"?>
<svg width="24px" height="24px" viewBox="0 0 24 24" version="1.1" xmlns="http://www.w3.org/2000/svg" xmlns:xlink="http://www.w3.org/1999/xlink">
    <!-- Generator: Sketch 63.1 (92452) - https://sketch.com -->
    <title>icon-icon / video</title>
    <desc>Created with Sketch.</desc>
    <g id="icon-/-video" stroke="none" stroke-width="1" fill="none" fill-rule="evenodd">
        <path d="M19.0049107,5 C20.1067681,5 21,5.89706013 21,7.00585866 L21,16.9941413 C21,18.1019465 20.1073772,19 19.0049107,19 L4.99508929,19 C3.8932319,19 3,18.1029399 3,16.9941413 L3,7.00585866 C3,5.89805351 3.8926228,5 4.99508929,5 L19.0049107,5 Z M19.0049107,6 L4.99508929,6 C4.44637411,6 4,6.44887827 4,7.00585866 L4,16.9941413 C4,17.5514374 4.44630695,18 4.99508929,18 L19.0049107,18 C19.5536259,18 20,17.5511217 20,16.9941413 L20,7.00585866 C20,6.44856259 19.553693,6 19.0049107,6 Z M10.6957815,8.24944486 L15.3003861,10.9892673 C16.2369404,11.5465339 16.2294614,12.4544916 15.3003861,13.0073081 L10.6957815,15.7471305 C9.75922723,16.3043971 9,15.9116937 9,14.853372 L9,9.14320337 C9,8.09232758 9.76670616,7.69662837 10.6957815,8.24944486 Z M10.0208538,9.2103011 L10.0208538,14.7853139 C10.0208538,15.0848241 9.91331634,15.0295656 10.1866431,14.8700852 L14.7711659,12.1951126 C15.0762278,12.0171154 15.0763283,11.9785581 14.7711659,11.8005023 L10.1866431,9.12552971 C9.9203356,8.9701449 10.0208538,8.91853027 10.0208538,9.2103011 Z" id="video" fill="#666666"></path>
    </g>
</svg>
